X: 1
T: Spelvilles Hambo
O: Tierp
R: hambo-polska
Z: John Chambers <jc@trillian.mit.edu>
M: 3/4
L: 1/8
K: C
|: "C"e2 e>d c>A    | G2 G<E G>c      | e2 e>d c>B      | "F"A2 A<F A>d \
|  "Dm"f2 f>e d>c   | "G7"B>c B<G B>c | B2 A<F A>B      | "C"A2 G<E G>c ||
||  "C"e2 e>d c>A   | G2 G<E G>c      | e2 e>d c>B      | "F"A2 A<F A>d \
|  "Dm"f2 f>e d>c   | "G7"B>c B<G B>c | "G7"B>A G2 A>B  | "C"cz c4 :|
|: "C"G2 (3GEG c>E  | G2 (3GEG c>F    | "F"A2 (3AFA c>F | "Dm"A2 A4 \
|  "G7"B2 (3BGB d>G | B2 (3BGB d>G    | "C"c2 c>e g>e   | cz c4 :|
